public/img/icons/reverse.svg

<svg width="64" height="64" viewBox="0 0 64 64" fill="none" xmlns="http://www.w3.org/2000/svg">
<g clip-path="url(#clip0_190_32)">
<path d="M64 0H0V64H64V0Z" fill="white" fill-opacity="0.01"/>
<path d="M45.333 8.90089C53.3037 13.5116 58.6663 22.1296 58.6663 32M45.333 8.90089V18.6667M45.333 8.90089H55.0989M55.0989 45.3334C50.4881 53.304 41.8701 58.6667 31.9997 58.6667M55.0989 45.3334H45.333M55.0989 45.3334V55.0992M18.6663 55.0992C10.6957 50.4884 5.33301 41.8704 5.33301 32M18.6663 55.0992V45.3334M18.6663 55.0992H8.90053M8.90053 18.6667C13.5113 10.696 22.1293 5.33337 31.9997 5.33337M8.90053 18.6667H18.6663M8.90053 18.6667V8.90089" stroke="white" stroke-width="5.33333" stroke-linecap="round" stroke-linejoin="round"/>
<path d="M55.0992 45.3334C50.4884 53.304 41.8704 58.6667 32 58.6667M55.0992 45.3334H45.3333M55.0992 45.3334V55.0992" stroke="white" stroke-width="5.33333" stroke-linecap="round" stroke-linejoin="round"/>
<path d="M18.6663 55.0992C10.6957 50.4884 5.33301 41.8704 5.33301 32M18.6663 55.0992V45.3333M18.6663 55.0992H8.90053" stroke="white" stroke-width="5.33333" stroke-linecap="round" stroke-linejoin="round"/>
<path d="M8.90137 18.6667C13.5122 10.696 22.1301 5.33337 32.0005 5.33337M8.90137 18.6667H18.6672M8.90137 18.6667V8.90089" stroke="white" stroke-width="5.33333" stroke-linecap="round" stroke-linejoin="round"/>
<path d="M45.333 8.901C53.3037 13.5118 58.6663 22.1297 58.6663 32.0001M45.333 8.901V18.6668M45.333 8.901H55.0989" stroke="white" stroke-width="5.33333" stroke-linecap="round" stroke-linejoin="round"/>
</g>
<defs>
<clipPath id="clip0_190_32">
<rect width="64" height="64" fill="white"/>
</clipPath>
</defs>
</svg>

<svg xmlns="http://www.w3.org/2000/svg" width="64" height="64" fill="none" viewBox="0 0 64 64"><g clip-path="url(#a)"><path fill="#fff" fill-opacity=".01" d="M64 0H0v64h64z"/><path stroke="#fff" stroke-linecap="round" stroke-linejoin="round" stroke-width="5.333" d="M45.333 8.9c7.97 4.612 13.333 13.23 13.333 23.1M45.333 8.9v9.767m0-9.766h9.766m0 36.432c-4.61 7.971-13.229 13.334-23.1 13.334m23.1-13.334h-9.766m9.766 0V55.1m-36.433 0C10.696 50.49 5.333 41.87 5.333 32m13.333 23.1v-9.767m0 9.766H8.901m0-36.432C13.51 10.696 22.129 5.333 32 5.333M8.9 18.667h9.766m-9.765 0V8.9"/><path stroke="#fff" stroke-linecap="round" stroke-linejoin="round" stroke-width="5.333" d="M55.1 45.333C50.487 53.304 41.87 58.667 32 58.667m23.1-13.334h-9.767m9.766 0V55.1m-36.433 0C10.696 50.487 5.333 41.87 5.333 32m13.333 23.1v-9.767m0 9.766H8.901m0-36.432c4.611-7.971 13.23-13.334 23.1-13.334M8.9 18.667h9.766m-9.766 0V8.9m36.433.001c7.97 4.61 13.333 13.229 13.333 23.1M45.333 8.9v9.766m0-9.766h9.766"/></g><defs><clipPath id="a"><path fill="#fff" d="M0 0h64v64H0z"/></clipPath></defs></svg>
